X:1
T:An Bertha, Op.15
T:Sei mein!
T:1. Sei mein! 
T:Peter Cornelius
T:Peter Cornelius (trans. Mabelle Shapleigh) 
T:An Bertha, Op.15
T:(Be mine!)
T:OpenScore (CC0)
T:OpenScore (CC0)
C:Peter Cornelius
Z:Peter Cornelius
Z:OpenScore (CC0)
%%score 1 { ( 2 3 6 ) | ( 4 5 ) }
L:1/8
Q:1/4=80
M:3/4
K:Bb
V:1 treble nm="Gesang\nVoice"
V:2 treble nm="Pianoforte"
V:3 treble 
V:6 treble 
V:4 bass 
V:5 bass 
V:1
"^Andantino" z6 | z6 | z6 | z2 z2 F2 | F G c3 G | G A d3 A | A B e3 d | d2 c2 z c | g e d3 c | %9
w: |||Tief|im Ge- müt mir|Lie- be glüht, Und|wem sie blüht, Sollst|du sein, Sollst|all' mein Drang Die|
w: |||Deep|in my heart Love's|seed doth start, Whose|bloom thou art And|shalt be, My|yearn- ing strong The|
 f d c3 B | d B B3 _G | B2 F2 z d | d3 d c G | c2 B2 z2 | z6 | z2 z2 z B | e G c3 D | E F G3 G | %18
w: Ta- ge lang, Mein|Nacht- ge- sang zur|Ruh' sein, Mein|Nacht- ge- sang zur|Ruh' sein.||Wär'|Glück mir hold, All'|Gut und Gold, Das|
w: wole day long, My|ev'- ning song Shalt|thou be, My|ev'- ning song Shalt|thou be.||Were|for- tune mine, With|gol- den shine, For-|
 e3 e d A | c2 B2 z B | B d G3 c | c f A3 A | f =e d3 g | g2 c2 z2 | z2 z2 z F | F G c3 G | %26
w: dei- ne sollt's Im|Nu sein; Doch|höch- stes Gut, Mein|Lust und Mut, Mein|Her- zens- blut Sollst|du sein!|Sollst|bis zum Tod Mein|
w: e- ver thine 'Twould|then be; My|high- est good, My|joy- ous mood, My|heart's best blood Shalt|thou be!|Un-|\- til I'm dead My|
 G A d3 A | A B e3 d | d2 c2 z c |[Q:1/4=85]"^poco string." c d d3 d[Q:1/4=89]"^T" | %30
w: Him- mels brot, Mein|Wein so rot Da-|zu sein. O|komm, o bleib', Mein|
w: heav'n- ly bread, My|wine so red Shalt|thou be. O|come, my life, Through|
[Q:1/4=93]"^T" f d e3 e | e =e e3 g | g2 f2 z[Q:1/4=80]"^Tempo" f | f _e B3 e | e d =A3 G | %35
w: Lieb, mein Weib, Mein|Seel' und Leib Sollst|du sein, O|komm, o bleib', Mein|Lieb, mein Weib, Mein|
w: rest and strife, My|soul, my wife Shalt|thou be, O|come, my life, Through|rest and strife, My|
 d c c3 _G | c2 F2 z2 | z2 z2 z G | c2 B2 !fermata!z2 |] %39
w: Seel' und Leib Sollst|du sein!|Sollst|du sein!|
w: soul, my wife Shalt|thou be!|Shalt|thou be!|
V:2
!p! d2 B3 (D- | [DA]2) [DG]3 B, | [G,E]6 | [F,D]4 ([DF-]2 | (F)G c3 G-) | GA d3 A- | AB e3 d- | %7
 [=EBd]2 [EGc]2 z [EGc] | (ce d3 ([Ac]) | fd [Gc]3) [Gc] | (dB) (([GB]3 (_G-)) | ([GB]2) F3) B | %12
 [D=EB]3 (.[DEB].[CEc].[CEG]) | (!tenuto![_EFc]2 !tenuto![DFB]2) z B | %14
 [_ABf]3 (.[ABg].[ABf].[AB]) | (!tenuto!.[_G=Ae]2 !tenuto!.[FBd]2) z!mf! ([DFB] | %16
 [CE_A][B,DG] [_A,CF]3) ([A,DF] | [B,EG][A,DF] [G,B,E]3) [G,B,E] | %18
 [G,A,E][A,EG] (([A,EG]2 [CD^F])[FA]) | (([CD^FA]2 [B,GB]2)) z [B,GB] | %20
 ([B,GB][A,FA] [G,=EG]3) [B,GB] | [A,FA][G,B,G] F3 =E |!<(! (D=E F^F!<)!AG) | %23
 (!tenuto![=B,FG]2 !tenuto![C=EG]2) z!p! [_B,CG] | (!tenuto![B,CG]2 (!tenuto!C3) F) | (FG c3 G-) | %26
 (GA [Ad]3 A) | (AB- e3 d-) | [=EBd]2 [EGc]3 ([EGc-] |"_cresc. e poco string." c)d d3 [Fcd] | %30
 [Fdf][Fcd] [Ece]3 [Ece] | [Ee][=E=e] [E^ce]3 ([Ece] | %32
!mf! ((([G=eg]2 [Fdf]3))))"^Tempo" !>![Fdf]- | [Fdf][_EB_e] B2-!>(! Be- | e!>)!d!p! [=FA]3 [FG] | %35
 (dc) (cG)(G_G) | (!tenuto![_EFc]2 !tenuto![DFd]2) z!p! ([DFd] | %37
 !tenuto![=Ed]2 !tenuto![Ec]2) z!p! ([EG] | !tenuto![_Ec]2 !tenuto![DB]2) !fermata!z2 |] %39
V:3
 D2 D3 D | x6 | x6 | x6 | E2 E4- | E2 D4- | D2 [EB-]4 | x6 | [_EG]2 (FG F2) | [FA]2 (DE D2) | %10
 [DG]2 (CD C2-) | C2 (DE D2) | x6 | x6 | x6 | x6 | x6 | x6 | x6 | x6 | x6 | x2 [F,A,]2 [G,A,]2 | %22
 [F,A,]2 [CD]3 [=B,=F] | x6 | x2 A,4 | [A,E]2 E4- | E2 D4- | D2 [EB-]4 | x6 | F2 [Fc]3 x | x6 | %31
 _d2 x4 | x6 | x2 B,2- B,[E-B] | ED C=B, B,2 | =E2 E4 | x6 | x6 | x6 |] %39
V:4
 F,2 (F,G, F,2-) | F,2 (F,G, F,2) | B,,2 ((B,,2 C,2-) | C,2 B,,2) [B,,F,]2- | %4
 [B,,F,]2 (F,G, F,2-) | F,2 (F,G, F,2-) | F,2 (!arpeggio!B,C B,2-) | B,2 (B,C B,2) | %8
 !arpeggio!B,2 A,4 | [D,,D,]2 [G,,G,]4 | [B,,,B,,]2 [E,,E,]4- | [E,,E,]2 [B,,B,]4 | %12
 [C,G,B,]3 (.[C,G,B,].[C,G,B,].[C,G,B,]) | %13
 (!arpeggio!!tenuto!.[F,,F,A,]2 !tenuto!.[B,,F,B,]2) z B, | %14
 !arpeggio![B,,D]3 (!arpeggio!.[B,,D].[B,D].[B,D]) | (.[B,,C]2 .[B,,B,]2) z2 | %16
 ([B,,,B,,]3 [E,,,E,,] [B,,,B,,]2-) | ([B,,,B,,]3 [E,,,E,,] [C,,C,]2) | %18
 ([C,,C,]3 [^C,,^C,] [D,,D,]2) | ([G,,G,]3 E,D,G,,) | ([C,,C,]3 [F,,,F,,] [C,,C,]2-) | %21
 ([C,,C,]3 [F,,,F,,] [^C,,^C,]2) | [D,,D,]2 F,^F,A,G, | (!tenuto![C,G,]2 !tenuto![C,G,]2) z =E, | %24
 =E,2 (_E,G, F,2-) | F,2 (F,G, F,2-) | [B,,F,]2 (F,G, F,2-) | [B,,F,]2 (!arpeggio!B,C B,2-) | %28
 B,2 (B,C B,2-) | (B,A, _A,G,B,A,) | (_A,F,^F,G,B,A,) | (G,^F,G,A,=CB,) | B,2 (A,B, A,2) | %33
 !arpeggio!B,2!p! G,4 | [^F,,^F,]2 [G,,G,]4 | [C,_B,]2 [F,B,]4 | %36
 (!tenuto![F,A,]2 !tenuto![B,,F,B,]2) z [B,,F,B,] | [C,G,B,]2 [C,G,B,]2 z (((([C,G,B,] | %38
 ((!arpeggio![F,,F,-A,]2))) [B,,F,B,]2))) !fermata!z2 |] %39
V:5
 B,,2 B,,4- | B,,2 B,,4- | x6 | x6 | x2 B,,4- | B,,2 B,,4- | B,,2 !arpeggio!G,,4 | C,2 C,4 | %8
 !arpeggio!F,,2 F,4 | x6 | x6 | x6 | x6 | x6 | x6 | x6 | x6 | x6 | x6 | x6 | x6 | x6 | %22
 x2 G,,3 G,, | x5 C, | C,2 (F,,4 | B,,2) B,,4- | x2 B,,4- | x2 (G,,4 | C,6) | F,2 F,4 | C,2 C,4 | %31
 B,,2 A,,4 | D,2 D,4 | G,,2 G,,4 | x6 | x6 | x6 | x6 | x6 |] %39
V:6
 x6 | x6 | x6 | x6 | x6 | x6 | x6 | x6 | x6 | x6 | x6 | x6 | x6 | x6 | x6 | x6 | x6 | x6 | x6 | %19
 x6 | x6 | x6 | x6 | x6 | x6 | x6 | x6 | x6 | x6 | x6 | x6 | x6 | x6 | x2 FE E x | =A2 x4 | x6 | %36
 x6 | x6 | x6 |] %39

